X:1
T:Io son ferito
T:Luca Marenzio
T:Source : Il terzo libro delle Villanelle a tre voci---Venetia---G.Vincenzi---1587. Editor : André Vierendeels (19/05/17).
T:Notes : Original clefs : G2, C1, F3 m 10 in S 1 : "D" notated as quarter in original print
T:Io son ferito
T:©
T:©
C:Luca Marenzio
Z:©
%%score [ 1 2 3 ]
L:1/8
Q:1/4=120
M:4/4
K:C
V:1 treble nm="Soprano 1" snm="S 1"
V:2 treble nm="Soprano 2" snm="S 2"
V:3 treble-8 nm="Tenor" snm="T"
V:1
"^1)" e8 | e4 e4 | d4 c4 | f6 f2 | f4 e4 | d8 | d4 z2 c2 | e3 f g4- | g2 f2 e4 |[M:2/4] d4 :: %10
w: Io|son fe-|ri- to'è|chi mi|pun- se'il|co-|re, ha|ne be- gli'oc-|* chi'A- mo-|re,|
w: Fu'il|lac- ci'on-|de fui'a-|vin- to,|si ch'io|mo-|ro, di|LA- VI- NIA'il|_ crin d'o-|ro,|
[M:4/4] A4 d4 | B4 e4 | A4 d4 | G4 g2 e2 | d4 c4- | c4 z4 | e4 e2 d2 | c2 d2 e4 | e4 d4- | %19
w: ch'in- di|mi scrit-|te'al cor'|sia la tua|stel- la,|_|nel Mar de|tuoi mar- tir|LA- VI-|
w: quan- do'io|pri- ma|mi- rai|l'al- ma sua|lu- ce,|_|c'hor chia- ra|hor bru- n'à|pian- ger|
 d2 c2 B4- | B4 !fermata!A4 :| %21
w: * NIA bel-|* la.|
w: mi con- du-|* ce.|
V:2
"^2)""^1)""^3)" c8 | c4 c4 | B4 A4 | A6 A2 | A4 c4 | B8 | B2 B2 c2 A2 | G3 G BcdB | ^c2 d4 c2 | %9
w: Io|son fe-|ri- to'è|chi mi|pun- se'il|co-|re, ha ne be-|gl'oc- chi'A- mo- * * *||
w: Mil-|l'a- ven-|tom- mi'all'|hor pun-|gen- ti|dar-|di, LA- VI- NIA|con suoi sguar- * * *||
[M:2/4] d4 ::[M:4/4] A4 B4 | G4 c4 | A4 B4 | e4 e2 c2 | B4 c4- | c4 z4 | c4 c2 B2 | A2 B2 c4 | %18
w: re.|ch'in- di|mi scrit-|te'al cor'|sia la tua|stel- la,|_|nel Mar de|tuoi mar- tir|
w: di,|ma se|fe- rir-|me gl'oc-|chi tan- ta|gio- ia,|_|mi por- se'il|duol, ch'an- cor|
 c4 B2 A2 | A6 ^G^F | ^G4 !fermata!A4 :| %21
w: LA- VI- NIA|bel- * *|* la.|
w: non vuol, ch'io|mo- * *|* ia.|
V:3
"^1)""^4)" A8 | c4 c4 | G4 A4 | F6 F2 | F4 C4 | G8 | G2 G2 A3 B | c4 G4 | A8 |[M:2/4] D4 :: %10
w: Io|son fe-|ri- to'è|chi mi|pun- se'il|co-|re, ha ne be-|gl'oc- chi'A-|mo-|re,|
w: LI-|VI- NIA|è que-|st'è la|Ci- TA-|RE-|A, ch'in ter- r'an-|ci- d'e|be-|a,|
[M:4/4] d4 G4 | E4 A4 | D4 G4 | C4 E3 F | G4 C4 | c4 c2 B2 | A2 B2 c4- | c8 | C4 D4 | D4 E4- | %20
w: ch'in- di|mi scrit-|te'al cor'|sia la tua|stel- la,|nel Mar de|tuoi mar- tir|_|LA- VI-|NIA bel-|
w: ch'e sel-|la can-|ta'il plet-|tro mo- v'e|ri- de,|av- vi- va'o-|gn'al- tro'e me|_|sol las-|so'an- ci-|
 E4 !fermata!A,4 :| %21
w: * la.|
w: * de.|

